X:103
T:Love In The East. WM.103
M:6/8
L:1/8
Q:3/8=120
S:Wm.Mittell’s MS, New Romney,Kent,1799
R:.Jig
O:England
A:Kent
Z:vmp.Chris Partington
K:D
D|DFA dfd|AFDE2D|DFA dfd|cecd2D|!
DFA dfd|AFDE2D|BABd2A|FDDD2:|!
|:fga gfd|g2fe2d|fga afd|fed afd|!
fga afd|g2fe2d|BABd2A|FDDD2:|

